X:475
T: Yaorang qiannian liushui wei renmin
N: C2094
O: China, Shanxi Hequ
S: I, 288]
N: Han
R: Xiaodiao, Erentai, Niangaomian]
M: 2/4
L: 1/16
K: G
B3ed2dA | B3ed2A2 | B2BAB2BA | g2fedeB2 | ABAGE2G2 | A8
dd2Bd4 | B2d2B2d2 | A4A4 | d4B3A | F2FED4
AAAFAAAd | FFFED4 | dddBAAAF | FAFED4
A3Bd2f2 | e2d2A4 | F3EF2A2 | D8

